X:0373
M:C|
L:1/8
Q:1/2=100
K:G
g>age dBGB|(gag).e   agab|g>age dBGB|cABG TE2D2 |
g>age dBGB|(g>ag)e   agab|gbeg  dgBG|cABG TE2D2|]

